svg/发送失败.svg

<svg width="24" height="24" viewBox="0 0 24 24" fill="none" xmlns="http://www.w3.org/2000/svg">
<rect width="24" height="24" fill="#F5F5F5"/>
<rect x="-328" y="-484" width="953" height="913" rx="16" fill="white"/>
<g clip-path="url(#clip0_0_1)">
<circle cx="12" cy="11.9998" r="12" fill="#F54A45"/>
<path d="M13.726 18.93C13.726 19.9373 12.9682 20.6559 11.9609 20.6559C10.9535 20.6559 10.2742 19.9373 10.2742 18.93C10.2742 17.9226 10.9535 17.2236 11.9609 17.2236C12.9682 17.2236 13.726 17.9226 13.726 18.93Z" fill="white"/>
<path d="M10.295 5.10791C10.295 5.10791 10.2477 3.32077 11.9766 3.34446C13.7056 3.36814 13.7056 5.10791 13.7056 5.10791L12.8767 15.2812C12.8767 15.2812 12.6635 15.9444 11.9766 15.9444C11.2898 15.9444 11.053 15.2812 11.053 15.2812L10.295 5.10791Z" fill="white" stroke="white" stroke-width="0.122031"/>
</g>
<defs>
<clipPath id="clip0_0_1">
<rect width="24" height="24" fill="white"/>
</clipPath>
</defs>
</svg>

<svg fill="none" viewBox="0 0 24 24"><path fill="#F5F5F5" d="M0 0h24v24H0z"/><rect width="953" height="913" x="-328" y="-484" fill="white" rx="16"/><g clipPath="url(#a)"><circle cx="12" cy="12" r="12" fill="#F54A45"/><path fill="white" d="M13.726 18.93c0 1.007-.758 1.726-1.765 1.726-1.008 0-1.687-.719-1.687-1.726s.68-1.706 1.687-1.706 1.765.699 1.765 1.706"/><path fill="white" stroke="white" strokeWidth=".122" d="M10.295 5.108s-.047-1.787 1.682-1.764c1.729.024 1.729 1.764 1.729 1.764l-.83 10.173s-.212.663-.9.663c-.686 0-.923-.663-.923-.663z"/></g><defs><clipPath id="a"><path fill="white" d="M0 0h24v24H0z"/></clipPath></defs></svg>
